packages/ui-solid/icons/cancel_24.svg

<svg width="24" height="24" viewBox="0 0 24 24" fill="none" xmlns="http://www.w3.org/2000/svg">
<path fill-rule="evenodd" clip-rule="evenodd" d="M4.50552 4.4401C4.85466 4.08631 5.4245 4.08253 5.77829 4.43166L12.0036 10.575L18.229 4.43166C18.5828 4.08253 19.1526 4.08631 19.5018 4.4401C19.8509 4.79389 19.8471 5.36373 19.4933 5.71286L13.285 11.8395L19.4933 17.9661C19.8471 18.3152 19.8509 18.8851 19.5018 19.2389C19.1526 19.5927 18.5828 19.5964 18.229 19.2473L12.0036 13.1039L5.77829 19.2473C5.4245 19.5964 4.85466 19.5927 4.50552 19.2389C4.15639 18.8851 4.16017 18.3152 4.51396 17.9661L10.7223 11.8395L4.51396 5.71286C4.16017 5.36373 4.15639 4.79389 4.50552 4.4401Z" fill="#007AFF"/>
</svg>

<svg xmlns="http://www.w3.org/2000/svg" width="24" height="24" fill="none"><path fill="currentColor" fill-rule="evenodd" d="M4.506 4.44a.9.9 0 0 1 1.272-.008l6.226 6.143 6.225-6.143a.9.9 0 0 1 1.264 1.28l-6.208 6.127 6.208 6.127a.9.9 0 0 1-1.264 1.281l-6.225-6.143-6.226 6.143a.9.9 0 0 1-1.264-1.28l6.208-6.127-6.208-6.127a.9.9 0 0 1-.008-1.273" clip-rule="evenodd"/></svg>
